!!!OTL: 566. Liebesbetheuerung.
!!!ARE: Europa, Mitteleuropa, Deutschland, Hessen, Odenwald
!!!SCT: E0566A
!!!TXL: @@DE
!!!YEM: Copyright 1995, estate of Helmut Schaffrath.
**kern	**text
*ICvox	*
*M4/4	*
*met(c)	*
*k[b-]	*
*F:	*
=1	=1
!LO:TX:a:t=Ziemlich bewegt.	!
!LO:TX:a:t=Variante im Odenwald.	!
{4f	Mäd-
4a	-chen,
(4cc	wenn
8dd)	.
8cc	ich
=2	=2
4b-/	dich
4g	er-
4f	-blik-
4c}	-ke,
=3	=3
{8f	find
8f	ich
8a	kei-
8a	-ne
(4cc	Ru-
8b-)	.
8a	-he
=4	=4
2g	mehr;
2r}	.
=5	=5
{4b-	je-
4dd	-den
(4ff	Tag
8ee)	.
8dd	und
=6	=6
8ddL	je-
8ccJ	.
4cc	-de
8ffL	Stun-
8aJ	.
4a}	-de
=7	=7
{8g	hab
8a	ich
8b-	kei-
8cc	-ne
4dd	Freud
8ccL	nicht
8b-J	.
=8	=8
1a}	mehr.
==	==
!!!AGN: Liebes - Lied
!!!ONB: ESAC (Essen Associative Code) Database: ERK1
!!!AMT: simple quadruple
!!!AIN: vox
!!!EED: Helmut Schaffrath
!!!EEV: 1.0
!!!GTL: Liebeslieder [Neuere (aus dem 18. bis 19. Jahrh.) - Liebeslust]
!!!URL-scan: https://rosdok.uni-rostock.de/mcrviewer/recordIdentifier/rosdok_ppn745177662/iview2/phys_0396.iview2?x=-128.77276441889308&y=1519.2057868058328&scale=0.5870222003877485&rotation=0&layout=singlePageLayout
!!!ENC: Anna Maria Matuszewska
!!!EEV: 2024/11/12
*-	*-
